website/src/img/hero-logo.svg

<svg width="292" height="128" viewBox="0 0 292 128" fill="none" xmlns="http://www.w3.org/2000/svg">
<path fill-rule="evenodd" clip-rule="evenodd" d="M182.926 7.59423L183.555 7.23124C184.525 5.34166 185.34 3.54226 185.993 1.91812L190.764 0.532227C189.797 3.44692 188.205 7.15605 186.041 11.0715C186.416 21.5189 182.107 32.2186 174.947 40.444C163.278 53.8503 147.955 56.4085 131.374 54.2222C131.722 53.8916 132.08 53.5651 132.438 53.2377C133.796 51.9966 135.169 50.7412 136.159 49.1921C132.628 50.5879 128.879 51.4984 125.123 52.0251C114.467 46.4861 103.48 37.0868 100.855 24.7575C110.035 7.75285 129.798 0.750251 148.239 4.81824C149.476 8.30888 151.401 11.2747 154.101 13.8351C153.977 11.9234 153.991 10.0011 154.004 8.0827V8.08189V8.08077C154.008 7.48506 154.012 6.88971 154.012 6.29516C158.815 9.2624 163.669 12.1509 169.534 12.0052C173.608 11.904 177.926 10.4801 182.926 7.59423ZM160.376 30.879C158.819 29.1138 156.539 28.0004 154 28.0004C151.624 28.0004 149.476 28.9755 147.933 30.5473L140.031 23.2915C141.895 17.9275 137.772 12.0004 132 12.0004C125.864 12.0004 121.749 18.6315 124.292 24.0876L111.276 36.2771C107.174 31.3124 105.599 26.9875 105.106 25.3442C113.467 11.6201 129.575 5.15593 145.256 8.26783C148.194 15.1646 153.64 18.9946 160.026 22.226C159.918 21.8451 159.808 21.4654 159.699 21.0862L159.698 21.0851C158.958 18.528 158.226 15.9945 158.077 13.3108C165.13 16.7618 172.674 16.6629 179.838 13.6218C175.077 20.8863 168.711 27.8433 160.376 30.879ZM137.822 26.6935L145.853 34.0681C144.272 39.3709 148.385 45.0004 154 45.0004C159.454 45.0004 163.547 39.675 162.251 34.4483C170.24 31.3737 176.619 25.0721 181.531 18.2246C178.057 37.6925 159.568 52.8347 139.624 51.1978C141.396 48.362 142.119 45.1401 142.84 41.9233C142.957 41.4019 143.074 40.8805 143.195 40.3609C137.716 44.1335 132.517 46.744 125.823 47.877C120.769 45.1781 116.909 42.1672 113.971 39.234L126.797 27.2221C130.057 29.7494 134.815 29.522 137.822 26.6935ZM132 16.0004C129.515 16.0004 127.5 18.0151 127.5 20.5004C127.5 22.9857 129.515 25.0004 132 25.0004C134.486 25.0004 136.5 22.9857 136.5 20.5004C136.5 18.0151 134.486 16.0004 132 16.0004ZM149.5 36.5004C149.5 34.0151 151.515 32.0004 154 32.0004C156.486 32.0004 158.5 34.0151 158.5 36.5004C158.5 38.9857 156.486 41.0004 154 41.0004C151.515 41.0004 149.5 38.9857 149.5 36.5004ZM21.6282 71.808C22.9402 71.808 23.9642 72.864 23.9642 74.144C23.9642 75.456 22.9402 76.512 21.6282 76.512C20.3482 76.512 19.2602 75.456 19.2602 74.144C19.2602 72.864 20.3482 71.808 21.6282 71.808ZM23.3882 80V96H19.8682V80H23.3882ZM16.9282 96H2.78418V73.28H6.52818V92.416H16.9282V96ZM43.3182 94.912V80H39.7982V82.144C38.8382 80.736 36.8862 79.68 34.6782 79.68C30.3582 79.68 26.9982 83.264 26.9982 87.776C26.9982 92.32 30.3582 95.904 34.6782 95.904C36.8862 95.904 38.8382 94.816 39.7982 93.408V94.88C39.7982 98.112 37.6222 99.872 34.9662 99.872C32.8222 99.872 30.9982 99.008 29.6542 97.536L27.5102 100.064C29.0782 101.824 31.8622 103.008 34.9982 103.008C39.7342 103.008 43.3182 100.48 43.3182 94.912ZM30.5502 87.776C30.5502 84.928 32.5982 82.88 35.3182 82.88C38.0382 82.88 40.0862 84.928 40.0862 87.776C40.0862 90.624 38.0382 92.672 35.3182 92.672C32.5982 92.672 30.5502 90.624 30.5502 87.776ZM51.5757 96H48.0557V72H51.5757V82.176C52.5357 80.576 54.3597 79.68 56.4397 79.68C60.1517 79.68 62.5517 82.304 62.5517 86.368V96H59.0317V86.944C59.0317 84.416 57.7517 82.88 55.7037 82.88C53.3677 82.88 51.5757 84.704 51.5757 88.128V96ZM76.4362 95.808V92.672C75.9242 92.864 75.2202 92.992 74.5482 92.992C72.7242 92.992 71.8602 92.256 71.8602 90.272V83.136H76.4362V80H71.8602V75.552H68.3402V80H65.0122V83.136H68.3402V90.848C68.3402 94.464 70.7402 96.16 73.8122 96.16C74.9002 96.16 75.7322 96.032 76.4362 95.808ZM96.7344 96H93.4064L89.8864 85.632L86.3984 96H83.0704L77.6944 80H81.4064L84.8624 91.008L88.5424 80H91.2304L94.8784 91.008L98.3664 80H102.11L96.7344 96ZM103.498 88C103.498 92.864 106.986 96.32 111.85 96.32C115.21 96.32 117.706 94.88 119.146 92.608L116.458 90.688C115.626 92.096 114.122 93.12 111.882 93.12C109.226 93.12 107.114 91.392 106.954 88.768H119.53C119.562 88.256 119.562 87.968 119.562 87.616C119.562 82.464 116.042 79.68 111.85 79.68C106.986 79.68 103.498 83.296 103.498 88ZM111.722 82.656C113.77 82.656 115.626 83.904 116.01 86.208H107.114C107.594 83.84 109.674 82.656 111.722 82.656ZM124.941 71.808C126.253 71.808 127.277 72.864 127.277 74.144C127.277 75.456 126.253 76.512 124.941 76.512C123.661 76.512 122.573 75.456 122.573 74.144C122.573 72.864 123.661 71.808 124.941 71.808ZM146.631 94.912V80H143.111V82.144C142.151 80.736 140.199 79.68 137.991 79.68C133.671 79.68 130.311 83.264 130.311 87.776C130.311 92.32 133.671 95.904 137.991 95.904C140.199 95.904 142.151 94.816 143.111 93.408V94.88C143.111 98.112 140.935 99.872 138.279 99.872C136.135 99.872 134.311 99.008 132.967 97.536L130.823 100.064C132.391 101.824 135.175 103.008 138.311 103.008C143.047 103.008 146.631 100.48 146.631 94.912ZM126.701 96H123.181V80H126.701V96ZM133.863 87.776C133.863 84.928 135.911 82.88 138.631 82.88C141.351 82.88 143.399 84.928 143.399 87.776C143.399 90.624 141.351 92.672 138.631 92.672C135.911 92.672 133.863 90.624 133.863 87.776ZM154.888 96H151.368V72H154.888V82.176C155.848 80.576 157.672 79.68 159.752 79.68C163.464 79.68 165.864 82.304 165.864 86.368V96H162.344V86.944C162.344 84.416 161.064 82.88 159.016 82.88C156.68 82.88 154.888 84.704 154.888 88.128V96ZM179.749 95.808V92.672C179.237 92.864 178.533 92.992 177.861 92.992C176.037 92.992 175.173 92.256 175.173 90.272V83.136H179.749V80H175.173V75.552H171.653V80H168.325V83.136H171.653V90.848C171.653 94.464 174.053 96.16 177.125 96.16C178.213 96.16 179.045 96.032 179.749 95.808ZM201.338 96.384C194.81 96.384 189.594 91.2 189.594 84.64C189.594 78.08 194.81 72.896 201.338 72.896C205.786 72.896 209.562 75.168 211.578 78.656L208.346 80.512C206.874 78.08 204.474 76.512 201.338 76.512C196.826 76.512 193.37 80.128 193.37 84.64C193.37 89.152 196.826 92.768 201.338 92.768C204.474 92.768 206.874 91.2 208.346 88.768L211.578 90.624C209.562 94.112 205.786 96.384 201.338 96.384ZM214.743 96H218.263V88.128C218.263 84.704 220.055 82.88 222.391 82.88C224.439 82.88 225.719 84.416 225.719 86.944V96H229.239V86.368C229.239 82.304 226.839 79.68 223.127 79.68C221.047 79.68 219.223 80.576 218.263 82.176V72H214.743V96ZM240.303 96.32C235.919 96.32 232.591 92.576 232.591 88C232.591 83.424 235.919 79.68 240.303 79.68C242.607 79.68 244.527 80.864 245.423 82.144V80H248.943V96H245.423V93.856C244.527 95.136 242.607 96.32 240.303 96.32ZM240.943 93.12C243.791 93.12 245.711 90.88 245.711 88C245.711 85.12 243.791 82.88 240.943 82.88C238.095 82.88 236.175 85.12 236.175 88C236.175 90.88 238.095 93.12 240.943 93.12ZM253.712 96H257.232V88.192C257.232 84.992 259.056 83.296 261.072 83.296C261.712 83.296 262.224 83.392 262.832 83.584V79.968C262.352 79.872 261.904 79.84 261.456 79.84C259.632 79.84 257.84 81.024 257.232 82.848V80H253.712V96ZM275.436 92.672V95.808C274.732 96.032 273.9 96.16 272.812 96.16C269.74 96.16 267.34 94.464 267.34 90.848V83.136H264.012V80H267.34V75.552H270.86V80H275.436V83.136H270.86V90.272C270.86 92.256 271.724 92.992 273.548 92.992C274.22 92.992 274.924 92.864 275.436 92.672ZM289.654 91.36C289.654 88.736 287.99 87.328 285.174 86.496L283.542 86.016C281.974 85.568 281.622 84.896 281.622 84.128C281.622 83.168 282.71 82.624 283.766 82.624C285.078 82.624 286.102 83.264 286.806 84.256L289.238 82.4C288.118 80.64 286.23 79.68 283.83 79.68C280.63 79.68 278.134 81.408 278.102 84.256C278.07 86.624 279.51 88.384 282.294 89.152L283.702 89.536C285.622 90.112 286.166 90.656 286.166 91.584C286.166 92.704 285.11 93.28 283.862 93.28C282.23 93.28 280.662 92.48 280.022 91.072L277.43 92.928C278.582 95.2 281.014 96.32 283.862 96.32C287.158 96.32 289.654 94.432 289.654 91.36ZM146.268 112.752C146.268 113.216 145.9 113.6 145.436 113.6C144.956 113.6 144.572 113.216 144.572 112.752C144.572 112.288 144.956 111.904 145.436 111.904C145.9 111.904 146.268 112.288 146.268 112.752ZM145.98 124H144.86V116H145.98V124ZM93.956 124.16C96.228 124.16 97.94 122.288 97.94 120C97.94 117.712 96.228 115.84 93.956 115.84C92.724 115.84 91.572 116.48 90.996 117.344V112H89.876V124H90.996V122.656C91.572 123.52 92.724 124.16 93.956 124.16ZM93.844 123.12C92.1 123.12 90.9 121.728 90.9 120C90.9 118.272 92.1 116.88 93.844 116.88C95.588 116.88 96.788 118.272 96.788 120C96.788 121.728 95.588 123.12 93.844 123.12ZM101.732 127.344L107.044 116H105.78L102.852 122.352L99.9236 116H98.6756L102.228 123.6L100.468 127.344H101.732ZM115.308 124H114.108V113.792H110.428V112.64H118.988V113.792H115.308V124ZM119.126 124H120.246V119.984C120.246 117.936 121.478 117.04 122.47 117.04C122.71 117.04 122.918 117.072 123.142 117.152V115.984C122.95 115.936 122.758 115.92 122.566 115.92C121.622 115.92 120.582 116.528 120.246 117.648V116H119.126V124ZM130.851 122.656C130.275 123.52 129.123 124.16 127.891 124.16C125.619 124.16 123.907 122.288 123.907 120C123.907 117.712 125.619 115.84 127.891 115.84C129.123 115.84 130.275 116.48 130.851 117.344V116H131.971V124H130.851V122.656ZM125.059 120C125.059 121.728 126.259 123.12 128.003 123.12C129.747 123.12 130.947 121.728 130.947 120C130.947 118.272 129.747 116.88 128.003 116.88C126.259 116.88 125.059 118.272 125.059 120ZM138.032 124.16C139.264 124.16 140.416 123.52 140.992 122.656V124H142.112V112H140.992V117.344C140.416 116.48 139.264 115.84 138.032 115.84C135.76 115.84 134.048 117.712 134.048 120C134.048 122.288 135.76 124.16 138.032 124.16ZM138.144 123.12C136.4 123.12 135.2 121.728 135.2 120C135.2 118.272 136.4 116.88 138.144 116.88C139.888 116.88 141.088 118.272 141.088 120C141.088 121.728 139.888 123.12 138.144 123.12ZM148.735 124H149.855V120.016C149.855 118.032 150.943 116.88 152.351 116.88C153.535 116.88 154.367 117.744 154.367 119.152V124H155.487V118.992C155.487 117.04 154.223 115.84 152.479 115.84C151.439 115.84 150.431 116.288 149.855 117.344V116H148.735V124ZM165.454 123.584C165.454 126.192 163.726 127.504 161.502 127.504C159.662 127.504 158.334 126.672 157.726 125.76L158.606 125.008C159.23 125.872 160.158 126.464 161.502 126.464C162.878 126.464 164.334 125.632 164.334 123.52V122.496C163.758 123.36 162.638 124 161.406 124C159.134 124 157.454 122.208 157.454 119.92C157.454 117.632 159.134 115.84 161.406 115.84C162.638 115.84 163.758 116.48 164.334 117.344V116H165.454V123.584ZM158.606 119.92C158.606 121.648 159.774 122.96 161.518 122.96C163.262 122.96 164.43 121.648 164.43 119.92C164.43 118.192 163.262 116.88 161.518 116.88C159.774 116.88 158.606 118.192 158.606 119.92ZM172.157 124L177.037 112.64H175.693L171.661 122.016L167.629 112.64H166.269L171.165 124H172.157ZM180.003 112.752C180.003 113.216 179.635 113.6 179.171 113.6C178.691 113.6 178.307 113.216 178.307 112.752C178.307 112.288 178.691 111.904 179.171 111.904C179.635 111.904 180.003 112.288 180.003 112.752ZM179.715 124H178.595V116H179.715V124ZM185.926 124.16C187.59 124.16 188.774 123.408 189.478 122.208L188.566 121.616C188.022 122.56 187.238 123.12 185.926 123.12C184.182 123.12 182.982 121.84 182.966 120.192H189.718V119.888C189.702 117.328 188.038 115.84 185.958 115.84C183.526 115.84 181.814 117.68 181.814 120C181.814 122.304 183.414 124.16 185.926 124.16ZM185.91 116.88C187.254 116.88 188.358 117.76 188.55 119.2H183.062C183.334 117.744 184.582 116.88 185.91 116.88ZM199.462 124H198.534L196.422 117.904L194.294 124H193.366L190.63 116H191.782L193.862 122.08L195.974 116H196.838L198.95 122.08L201.03 116H202.198L199.462 124Z" fill="currentColor"/>
</svg>

<svg xmlns="http://www.w3.org/2000/svg" width="292" height="128" viewBox="0 0 292 128"><path fill-rule="evenodd" d="m182.93 7.6.63-.37a64.1 64.1 0 0 0 2.43-5.31l4.77-1.39a64.68 64.68 0 0 1-4.72 10.54c.38 10.45-3.93 21.15-11.1 29.37-11.66 13.41-26.98 15.97-43.57 13.78l1.07-.98a21.1 21.1 0 0 0 3.72-4.05 48.37 48.37 0 0 1-11.04 2.84c-10.65-5.54-21.64-14.94-24.27-27.27 9.19-17 28.95-24.01 47.39-19.94a22.57 22.57 0 0 0 5.86 9.02c-.12-1.92-.1-3.84-.1-5.76l.01-1.78c4.8 2.96 9.66 5.85 15.52 5.7 4.08-.1 8.4-1.52 13.4-4.4Zm-22.55 23.28a8.48 8.48 0 0 0-12.45-.33l-7.9-7.26A8.6 8.6 0 0 0 132 12c-6.14 0-10.25 6.63-7.7 12.09l-13.02 12.19c-4.1-4.97-5.68-9.3-6.17-10.94 8.36-13.72 24.46-20.18 40.15-17.07 2.93 6.9 8.38 10.72 14.77 13.96l-.33-1.14c-.74-2.56-1.47-5.1-1.62-7.78 7.05 3.45 14.6 3.35 21.76.31-4.76 7.27-11.13 14.22-19.46 17.26Zm-22.56-4.19 8.03 7.38A8.6 8.6 0 0 0 154 45a8.6 8.6 0 0 0 8.25-10.55c7.99-3.08 14.37-9.38 19.28-16.23-3.47 19.47-21.96 34.61-41.9 32.98 1.77-2.84 2.49-6.06 3.21-9.28l.35-1.56c-5.47 3.77-10.67 6.38-17.37 7.52a49.9 49.9 0 0 1-11.85-8.65l12.83-12a8.58 8.58 0 0 0 11.02-.54ZM132 16a4.5 4.5 0 1 0 0 9 4.5 4.5 0 0 0 0-9Zm17.5 20.5a4.5 4.5 0 1 1 9 0 4.5 4.5 0 0 1-9 0ZM21.63 71.8a2.33 2.33 0 0 1 2.33 2.34 2.34 2.34 0 0 1-2.33 2.37 2.38 2.38 0 0 1-2.37-2.37 2.38 2.38 0 0 1 2.37-2.33Zm1.76 8.2v16h-3.52V80h3.52Zm-6.46 16H2.78V73.28h3.75v19.14h10.4V96Zm26.39-1.09V80H39.8v2.14a6.26 6.26 0 0 0-5.12-2.46c-4.32 0-7.68 3.58-7.68 8.1 0 4.54 3.36 8.12 7.68 8.12 2.2 0 4.16-1.08 5.12-2.5v1.48c0 3.23-2.18 5-4.83 5a7.03 7.03 0 0 1-5.32-2.34l-2.14 2.52c1.57 1.76 4.35 2.95 7.49 2.95 4.73 0 8.32-2.53 8.32-8.1Zm-12.77-7.13a4.7 4.7 0 0 1 4.77-4.9 4.7 4.7 0 0 1 4.77 4.9 4.7 4.7 0 0 1-4.77 4.9 4.7 4.7 0 0 1-4.77-4.9ZM51.58 96h-3.52V72h3.52v10.18c.96-1.6 2.78-2.5 4.86-2.5 3.71 0 6.11 2.62 6.11 6.69V96h-3.52v-9.06c0-2.52-1.28-4.06-3.33-4.06-2.33 0-4.12 1.82-4.12 5.25V96Zm24.86-.2v-3.13c-.52.2-1.22.32-1.9.32-1.82 0-2.68-.73-2.68-2.72v-7.13h4.58V80h-4.58v-4.45h-3.52V80h-3.33v3.14h3.33v7.7c0 3.62 2.4 5.32 5.47 5.32 1.09 0 1.92-.13 2.63-.35Zm20.3.2H93.4l-3.52-10.37L86.39 96h-3.32l-5.38-16h3.72l3.45 11 3.68-11h2.69l3.65 11 3.49-11h3.74l-5.38 16Zm6.76-8c0 4.86 3.49 8.32 8.35 8.32 3.36 0 5.86-1.44 7.3-3.71l-2.7-1.92a5.03 5.03 0 0 1-4.57 2.43c-2.65 0-4.77-1.73-4.93-4.35h12.58c.03-.51.03-.8.03-1.15 0-5.16-3.52-7.94-7.71-7.94A8.12 8.12 0 0 0 103.5 88Zm8.22-5.34c2.05 0 3.9 1.24 4.29 3.55h-8.9c.48-2.37 2.56-3.55 4.61-3.55Zm13.22-10.85a2.33 2.33 0 0 1 2.34 2.33 2.34 2.34 0 0 1-2.34 2.37 2.38 2.38 0 0 1-2.37-2.37 2.38 2.38 0 0 1 2.37-2.33Zm21.7 23.1V80h-3.53v2.14a6.26 6.26 0 0 0-5.12-2.46c-4.32 0-7.68 3.58-7.68 8.1 0 4.54 3.36 8.12 7.68 8.12 2.2 0 4.16-1.08 5.12-2.5v1.48c0 3.23-2.18 5-4.83 5a7.03 7.03 0 0 1-5.31-2.34l-2.15 2.52c1.57 1.76 4.36 2.95 7.5 2.95 4.73 0 8.31-2.53 8.31-8.1ZM126.7 96h-3.52V80h3.52v16Zm7.16-8.22a4.7 4.7 0 0 1 4.77-4.9 4.7 4.7 0 0 1 4.77 4.9 4.7 4.7 0 0 1-4.77 4.9 4.7 4.7 0 0 1-4.77-4.9ZM154.9 96h-3.52V72h3.52v10.18c.96-1.6 2.78-2.5 4.86-2.5 3.71 0 6.11 2.62 6.11 6.69V96h-3.52v-9.06c0-2.52-1.28-4.06-3.32-4.06-2.34 0-4.13 1.82-4.13 5.25V96Zm24.86-.2v-3.13c-.51.2-1.22.32-1.89.32-1.82 0-2.69-.73-2.69-2.72v-7.13h4.58V80h-4.58v-4.45h-3.52V80h-3.33v3.14h3.33v7.7c0 3.62 2.4 5.32 5.47 5.32 1.1 0 1.92-.13 2.63-.35Zm21.59.58a11.67 11.67 0 0 1-11.75-11.74c0-6.56 5.22-11.74 11.75-11.74 4.45 0 8.22 2.27 10.24 5.76l-3.23 1.85a7.94 7.94 0 0 0-7.01-4 7.96 7.96 0 0 0-7.97 8.13 7.96 7.96 0 0 0 7.97 8.13 7.94 7.94 0 0 0 7-4l3.24 1.85a11.66 11.66 0 0 1-10.24 5.76Zm13.4-.38h3.52v-7.87c0-3.43 1.8-5.25 4.13-5.25 2.05 0 3.33 1.54 3.33 4.06V96h3.52v-9.63c0-4.07-2.4-6.69-6.11-6.69-2.08 0-3.9.9-4.87 2.5V72h-3.52v24Zm25.56.32c-4.38 0-7.7-3.74-7.7-8.32s3.32-8.32 7.7-8.32c2.3 0 4.23 1.18 5.12 2.46V80h3.52v16h-3.52v-2.14a6.38 6.38 0 0 1-5.12 2.46Zm.64-3.2c2.85 0 4.77-2.24 4.77-5.12s-1.92-5.12-4.77-5.12c-2.84 0-4.76 2.24-4.76 5.12s1.91 5.12 4.76 5.12ZM253.71 96h3.52v-7.8c0-3.2 1.83-4.9 3.84-4.9.64 0 1.15.1 1.76.28v-3.61c-.48-.1-.93-.13-1.37-.13a4.5 4.5 0 0 0-4.23 3V80h-3.52v16Zm21.73-3.33v3.14c-.7.22-1.54.35-2.63.35-3.07 0-5.47-1.7-5.47-5.31v-7.71h-3.33V80h3.33v-4.45h3.52V80h4.58v3.14h-4.58v7.13c0 1.99.86 2.72 2.69 2.72.67 0 1.37-.13 1.89-.32Zm14.21-1.31c0-2.62-1.66-4.03-4.48-4.86l-1.63-.48c-1.57-.45-1.92-1.12-1.92-1.9 0-.95 1.09-1.5 2.15-1.5 1.3 0 2.33.64 3.04 1.64l2.43-1.86c-1.12-1.76-3.01-2.72-5.41-2.72-3.2 0-5.7 1.73-5.73 4.58-.03 2.36 1.41 4.12 4.2 4.9l1.4.38c1.92.57 2.47 1.12 2.47 2.04 0 1.12-1.06 1.7-2.3 1.7-1.64 0-3.2-.8-3.85-2.2l-2.59 1.85c1.15 2.27 3.58 3.39 6.43 3.39 3.3 0 5.8-1.89 5.8-4.96Zm-143.38 21.4c0 .46-.37.84-.83.84a.86.86 0 0 1-.87-.85c0-.46.39-.85.87-.85.46 0 .83.39.83.85Zm-.29 11.24h-1.12v-8h1.12v8Zm-52.02.16a4.04 4.04 0 0 0 3.98-4.16 4.04 4.04 0 0 0-3.98-4.16c-1.24 0-2.39.64-2.96 1.5V112h-1.12v12H91v-1.34c.57.86 1.72 1.5 2.96 1.5Zm-.12-1.04c-1.74 0-2.94-1.4-2.94-3.12 0-1.73 1.2-3.12 2.94-3.12 1.75 0 2.95 1.4 2.95 3.12 0 1.73-1.2 3.12-2.95 3.12Zm7.9 4.22 5.3-11.34h-1.26l-2.93 6.35-2.93-6.35h-1.24l3.55 7.6-1.76 3.74h1.26ZM115.3 124h-1.2v-10.2h-3.68v-1.16h8.56v1.15h-3.68V124Zm3.82 0h1.12v-4.02c0-2.04 1.23-2.94 2.22-2.94.24 0 .45.03.67.11v-1.17a2.44 2.44 0 0 0-2.9 1.66V116h-1.11v8Zm11.72-1.34a3.64 3.64 0 0 1-2.96 1.5 4.04 4.04 0 0 1-3.98-4.16 4.04 4.04 0 0 1 3.98-4.16c1.23 0 2.39.64 2.96 1.5V116h1.12v8h-1.12v-1.34Zm-5.8-2.66c0 1.73 1.2 3.12 2.95 3.12 1.75 0 2.95-1.4 2.95-3.12 0-1.73-1.2-3.12-2.95-3.12-1.74 0-2.94 1.4-2.94 3.12Zm12.98 4.16c1.23 0 2.39-.64 2.96-1.5V124h1.12v-12H141v5.34a3.64 3.64 0 0 0-2.96-1.5 4.04 4.04 0 0 0-3.98 4.16 4.04 4.04 0 0 0 3.98 4.16Zm.11-1.04c-1.74 0-2.94-1.4-2.94-3.12 0-1.73 1.2-3.12 2.94-3.12 1.75 0 2.95 1.4 2.95 3.12 0 1.73-1.2 3.12-2.95 3.12Zm10.6.88h1.11v-3.98c0-1.99 1.1-3.14 2.5-3.14 1.19 0 2.02.86 2.02 2.27V124h1.12v-5c0-1.96-1.27-3.16-3.01-3.16-1.04 0-2.05.45-2.63 1.5V116h-1.11v8Zm16.71-.42c0 2.61-1.72 3.92-3.95 3.92-1.84 0-3.17-.83-3.77-1.74l.88-.75a3.4 3.4 0 0 0 2.9 1.45c1.37 0 2.82-.83 2.82-2.94v-1.02c-.57.86-1.7 1.5-2.92 1.5a3.94 3.94 0 0 1-3.96-4.08 3.94 3.94 0 0 1 3.96-4.08c1.23 0 2.35.64 2.92 1.5V116h1.12v7.58Zm-6.84-3.66c0 1.73 1.16 3.04 2.9 3.04 1.75 0 2.92-1.31 2.92-3.04s-1.17-3.04-2.91-3.04c-1.75 0-2.91 1.31-2.91 3.04Zm13.55 4.08 4.88-11.36h-1.35l-4.03 9.38-4.03-9.38h-1.36l4.9 11.36h.99Zm7.84-11.25c0 .47-.37.85-.83.85a.86.86 0 0 1-.86-.85c0-.46.38-.85.86-.85.47 0 .83.39.83.85Zm-.28 11.25h-1.13v-8h1.13v8Zm6.2.16a3.9 3.9 0 0 0 3.56-1.95l-.91-.6a2.78 2.78 0 0 1-2.64 1.51 2.87 2.87 0 0 1-2.96-2.93h6.75v-.3c-.02-2.56-1.68-4.05-3.76-4.05a4.05 4.05 0 0 0-4.15 4.16c0 2.3 1.6 4.16 4.12 4.16Zm-.01-7.28c1.34 0 2.45.88 2.64 2.32h-5.49a2.84 2.84 0 0 1 2.85-2.32Zm13.55 7.12h-.93l-2.1-6.1-2.14 6.1h-.92l-2.74-8h1.15l2.08 6.08 2.11-6.08h.87l2.11 6.08 2.08-6.08h1.17l-2.74 8Z" fill="currentColor"/></svg>
